packages/icons/src/github-logo.svg

<svg width="15" height="15" viewBox="0 0 15 15" fill="none" xmlns="http://www.w3.org/2000/svg">
  <path
    fill-rule="evenodd"
    clip-rule="evenodd"
    d="M7.49933 0.25C3.49635 0.25 0.25 3.49593 0.25 7.50024C0.25 10.703 2.32715 13.4206 5.2081 14.3797C5.57084 14.446 5.70302 14.2222 5.70302 14.0299C5.70302 13.8576 5.69679 13.4019 5.69323 12.797C3.67661 13.235 3.25112 11.825 3.25112 11.825C2.92132 10.9874 2.44599 10.7644 2.44599 10.7644C1.78773 10.3149 2.49584 10.3238 2.49584 10.3238C3.22353 10.375 3.60629 11.0711 3.60629 11.0711C4.25298 12.1788 5.30335 11.8588 5.71638 11.6732C5.78225 11.205 5.96962 10.8854 6.17658 10.7043C4.56675 10.5209 2.87415 9.89918 2.87415 7.12104C2.87415 6.32925 3.15677 5.68257 3.62053 5.17563C3.54576 4.99226 3.29697 4.25521 3.69174 3.25691C3.69174 3.25691 4.30015 3.06196 5.68522 3.99973C6.26337 3.83906 6.8838 3.75895 7.50022 3.75583C8.1162 3.75895 8.73619 3.83906 9.31523 3.99973C10.6994 3.06196 11.3069 3.25691 11.3069 3.25691C11.7026 4.25521 11.4538 4.99226 11.3795 5.17563C11.8441 5.68257 12.1245 6.32925 12.1245 7.12104C12.1245 9.9063 10.4292 10.5192 8.81452 10.6985C9.07444 10.9224 9.30633 11.3648 9.30633 12.0413C9.30633 13.0102 9.29742 13.7922 9.29742 14.0299C9.29742 14.2239 9.42828 14.4496 9.79591 14.3788C12.6746 13.4179 14.75 10.7025 14.75 7.50024C14.75 3.49593 11.5036 0.25 7.49933 0.25Z"
    fill="currentColor"
  />
</svg>

<svg xmlns="http://www.w3.org/2000/svg" width="15" height="15" fill="none"><path fill="currentColor" fill-rule="evenodd" d="M7.5.25a7.25 7.25 0 0 0-2.292 14.13c.363.066.495-.158.495-.35 0-.172-.006-.628-.01-1.233-2.016.438-2.442-.972-2.442-.972-.33-.838-.805-1.06-.805-1.06-.658-.45.05-.441.05-.441.728.051 1.11.747 1.11.747.647 1.108 1.697.788 2.11.602.066-.468.254-.788.46-.969-1.61-.183-3.302-.805-3.302-3.583a2.8 2.8 0 0 1 .747-1.945c-.075-.184-.324-.92.07-1.92 0 0 .61-.194 1.994.744A7 7 0 0 1 7.5 3.756 7 7 0 0 1 9.315 4c1.384-.938 1.992-.743 1.992-.743.396.998.147 1.735.072 1.919.465.507.745 1.153.745 1.945 0 2.785-1.695 3.398-3.31 3.577.26.224.492.667.492 1.343 0 .97-.009 1.751-.009 1.989 0 .194.131.42.499.349A7.25 7.25 0 0 0 7.499.25" clip-rule="evenodd"/></svg>
